!!!OTL: Nachtgruss.
!!!OTL-incipit: GUTEN ABEND GUTE NACHT
!!!ARE: Europa, Mitteleuropa, Deutschland, Nord - Deutschland
!!!SCT: Z1363
!!!TXL: @@DE
!!!YEM: Copyright 1995, estate of Helmut Schaffrath.
**kern	**text
*ICvox	*
*M3/4	*
*k[b-e-a-]	*
*E-:	*
!LO:TX:a:t=Aus Norddeutſchland.	!
{8.e-	Gu-
16e-	-ten
=1	=1
4.b-/	A-
8a-	-bend,
4g	gut
=2	=2
2g}	Nacht,
{4e-	mit
=3	=3
4f	Ro-
4f	-ſen
8fL	be-
8a-J	.
=4	=4
2a-}	-dacht,
{4g	be-
=5	=5
4b-/	-ſtreuet
4g	.
4a-	mit
=6	=6
4.b-	Nä-
8cc	-ge-
4b-}	-lein,
=7	=7
{4b-/	Kind-
4g	-chen,
4a-	ſchlaf
=8	=8
2g	ein!
4r}	.
=9	=9
{4f	kriech
8a-L	un-
8gJ	.
8a-	-ter
8f	die
=10	=10
8.gL	Dek-
16a-J	.
4b-/	-ken,
4r}	.
=11	=11
{4f	mein
8a-L	Lieb-
8gJ	.
8a-L	-ling
8fJ	.
=12	=12
8.gL	du,
16a-J	.
4b-/	.
4r}	.
=13	=13
{4b-/	will's
4b-/	Gott,
8g	will
8g	ich
=14	=14
4b-	wek-
8ee-L	-ken
8gJ}	.
{8ccL	dich
8b-J	.
=15	=15
4b-/	mor-
8a-L	-gen
8gJ	.
8a-L	recht
8fJ	.
=16	=16
2e-}	fruh!
==	==
!!!AGN: Kinder - Lied
!!!ONB: ESAC (Essen Associative Code) Database: ZUCCAL
!!!AMT: simple triple
!!!AIN: vox
!!!EED: Helmut Schaffrath
!!!EEV: 1.0
!!!GTL: IX. Kinder- Lieder.
!!!URL-scan: https://www.digitale-sammlungen.de/de/view/bsb11160573?page=665
!!!ENC: Anna Maria Matuszewska
!!!EEV: 2025/02/07
*-	*-
